X: 65
T: Hangman’s reel
B: canberra pickers and fiddlers
B: old time tunes update
B: tunes
M:2/4
L:1/8
Q: 1/4=100
K:A
V:1 
(D/|A/)D/A/(A/ B/)A/B|c/B/c/(A/ B/)A/B|AA B/A/B/B/|c/B/c/c/ B>B|AA BB|
c/B/c/A/ B(A/B/|c)B/c/A/ B/A/B|(D/A)(D/ A):|
|:(A/|e/)(A/c/)(A/|e/)(A/c/)(A/|B/)A/B/B/ c/B/A|ec ec|B/A/B/(B/ A:|
(A|:B>)(A B)(A|A/)B/c/A/ B/A/E|(A/B)(A/ B/)A/B|e/f/e/(d/ c/B/)A:|
|:c/B/c dd|cc/c/ d/c/d|cc d/c/d|c/B/c/A/ BB|c/B/c d/c/d c/B/c d/c/d|c/B/cB/A/B|D/AD/ A2:|
% abcbook-tune_id 67a7d9ecd34229d65482a571
% abcbook-tune_composer_id 
% abcbook-link-0 https://www.youtube.com/watch?v=rjJWbtxE9Gw
% abcbook-link-title-0 Hangman&#39;s Reel
% abcbook-boost 0
% abcbook-difficulty 0
% abcbook-tags old time tunes
% abcbook-tablature 
% abcbook-transpose 
% abcbook-tuning AEAE
% abcbook-lastupdated 1739095828960
% abcbook-src-url 
% abcbook-soundfonts 
% abcbook-repeats 1


